app/assets/images/payment_icons/aplazo.svg

<svg xmlns="http://www.w3.org/2000/svg" width="38" height="24" viewBox="0 0 38 24" fill="none" aria-labelledby="pi-aplazo" role="img"><title id="pi-aplazo">Aplazo</title><rect width="38" height="24" fill="#64E9F7"/><path d="M25.826 9.82197C25.184 9.86597 23.722 10.037 23.301 10.094C22.892 7.95797 21.758 6.43797 20.103 6.07997C16.73 5.34997 13.327 9.63697 11 17.543L12.739 18C14.975 10.403 17.904 7.35397 19.701 7.74197C20.523 7.91997 21.235 8.89197 21.525 10.403C17.227 11.336 16.335 13.108 16.435 14.555C16.516 15.739 17.185 16.713 18.269 17.232C19.364 17.754 20.698 17.71 21.665 17.124C22.883 16.386 23.069 15.311 23.192 14.599C23.192 14.599 23.429 12.968 23.45 12.303C22.771 12.397 22.148 12.515 21.635 12.645C21.605 13.1 21.414 14.323 21.414 14.323C21.3 14.985 21.209 15.376 20.694 15.688C20.266 15.948 19.603 15.958 19.082 15.708C18.724 15.537 18.285 15.178 18.234 14.441C18.164 13.444 19.387 12.634 21.664 12.111C21.672 12.111 21.679 12.107 21.686 12.105C23.338 11.747 26 11.512 26 11.512L25.826 9.82197V9.82197Z" fill="black"/></svg>

<svg xmlns="http://www.w3.org/2000/svg" role="img" viewBox="0 0 38 24" width="38" height="24" aria-labelledby="pi-aplazo"><title id="pi-aplazo">Aplazo</title><path opacity=".07" d="M35 0H3C1.3 0 0 1.3 0 3v18c0 1.7 1.4 3 3 3h32c1.7 0 3-1.3 3-3V3c0-1.7-1.4-3-3-3z" fill="#000"/><path d="M35 1c1.1 0 2 .9 2 2v18c0 1.1-.9 2-2 2H3c-1.1 0-2-.9-2-2V3c0-1.1.9-2 2-2h32z" fill="#64E9F7"/><path d="M25.826 9.822c-.642.044-2.104.215-2.525.272-.409-2.136-1.543-3.656-3.198-4.014C16.73 5.35 13.327 9.637 11 17.543l1.739.457c2.236-7.597 5.165-10.646 6.962-10.258.822.178 1.534 1.15 1.824 2.661-4.298.933-5.19 2.705-5.09 4.152.081 1.184.75 2.158 1.834 2.677 1.095.522 2.429.478 3.396-.108 1.218-.738 1.404-1.813 1.527-2.525 0 0 .237-1.631.258-2.296-.679.094-1.302.212-1.815.342-.03.455-.221 1.678-.221 1.678-.114.662-.205 1.053-.72 1.365-.428.26-1.091.27-1.612.02-.358-.171-.797-.53-.848-1.267-.07-.997 1.153-1.807 3.43-2.33.008 0 .015-.004.022-.006 1.652-.358 4.314-.593 4.314-.593l-.174-1.69z" fill="#000"/></svg>
